X: 48
T: Mama dada yinqianshang zhan
L: 1/8
M: 2/4
K: D
ef2e [I:setbarnb 1]| 
dB2B | 
B> d e d | 
E4 | 
ef2e | 
dB2B | 
B> d e d | 
A4 |]

@@@ Tune index: 8922
